X:855
T:King of the Clans, The
R:reel
D:Tommy Peoples
Z:id:hn-reel-855
M:C|
L:1/8
K:G
d2GA Bdge | dedB AGEG | DGBG dGBG | cege dcBc |
dGBd gdBd | gabg agef | gage d2ge |1 dBAG EGGB :|2 dBAd BGBd ||
|: g2bg egdf | gdBG AGEG | DGBG dGBG | cege dcBd |
gabg efge | dBGB AGEG | DG (3Bcd gece |1 dBAc BGBd :|2 dBAc BG~G2 ||
P:variations
d2BG (3Bcd ge | d^cdB AGEG | DGBG dGBG | cege dcBc |
d2Bd gdBd | gdbg agef | ga (3gfe d2 (3gfe | dBAd BG~G2 ||
d2BG Bdge | dgdB AGEG | DGBG dGBG | cege dcBc |
dGBd gdBd | gdbg agef | ~g3e dBge | dBAd BGBd ||
g2fg egdf | gdBG AGEG | DGBG dGBG | cege dcBd |
gabg edge | dBgB AGEG | DGBd ecge | dBAc BGBd ||
g2fg egdf | gdBG AGEG | DGBG dGBG | cege dcBd |
g2fg edge | dBGB AGEG | DGBd gece | dBAG EGGB ||

